X: 1
T: Bj\"orklingel\aaten   (Snoa)
C: Trad.
R: snoa, march
S: http://www.nyckelharpa.org/archive/written-music/american-allspel-list/ 2022/9/16
Z: 2022 John Chambers <jc:trillian.mit.edu>
M: 2/4
L: 1/16
Q: 1/4=100
K: C
G2 | c2(cB) c2e2 | c2G2 E2G2 | c2({d}cB) c2e2 | d6 (de) || f2e2 d2(3(cBc) |
d2c2 B2A2 | [1,3 G2(GA) G2F2 | E2C2 E2 :|[2,4 G2f2 d2B2 | c4 ({d}cB)cd | c6 :|
|: (ce) | g6 (3(ege) | c2g2 e2c2 | e2d2 (d^c)de | d6 de |[1,3 f6 (3(dfd) | B2f2 d2B2 |
d2c2 (cB)cd | c2G2 (EG) :|[2,4 f2e2 d2(3(cBc) | d2c2 B2(3(ABA) | G2f2 d2B2 | c4 ({d}cB)cd | c6 :|
